X: 1
T: Castles in the Air   [A]
O: Arr: Peter White
R: strathspey
B: Hugh Foss "DANCES to SONG TUNES" 1966 (music: Peter White)
Z: 2010 John Chambers <jc:trillian.mit.edu>
M: C
L: 1/8
K: A
E2 |\
"A"A>A A<c "E7"E2 E>F | "A"A>G A>B c3 z | "D"d>c d>f "A"e<c B>A | "Bm"B>c B>A "D"F2 ||
"E7"c>B |\
"A"A>A Ac "E7"E<E E>F | "F#m"A2 A>B "C#(m)"c3 z | "D"d>e fa "A"e<c "(B7)"A>B | "A"c>d "E7"c>B "A"A2 |]
(ce) |\
"D"f2 fa "A"e2 e>c | "Bm"d>c "E7"d<e "A"c2- "A7"cc | "D"d2 df "A"e>c B>A | "Bm"B>c BA "D"F2 ||
"E7"c>B |\
"A"A>A Ac "E7"E<E E>F | "F#m"A>G A>B "C#(m)"c3 z | "D"d>e fa "A"e>c "B7"A>B | "A"c>d "E7"c>B "A"A2 |]

